!!!SOCIAL_FUNCTION:	songs for success in hunting
!!!PDT:	1956
!!!OTL: No_215_We_Are_Tying_up_the_Dead_Animal.krn
!!!LANG: Non-Tone
!!!LING_GROUP: Muskogean
!!!REG: Florida
**kern
*staff1
=1-
*clefF4
*k[b-e-a-d-]
*M2/4
8D-/L
[8BB-/J
8BB-/L]
8E-/J
=2
4.E-\
8E-\
=3
4E-\
4r
=4
8D-/L
[8BB-/J
8BB-/L]
8E-/J
=5
4.E-\
8E-\
=6
2E-\
=7!|:
4B-\
4B-\
=8
8d-\L
8d-\J
4d-\
=9
4B-\
4A-\
=10
8B-\L
8B-\J
4A-\
=11||
*M3/4
4G\
4E-\
8A-\L
8A-\J
=12
4G\
4r
(8.G\L
16E-\Jk)
=13||
*M2/4
4.E-\
8E-\
=14||
*M3/4
4E-\
4r
8.BB-/L
16E-/Jk
=15||
*M2/4
4.E-\
8E-\
=16
2E-\
=17
4A-\
4A-\
=18
4A-\
4B-\
=19
4c\
4B-\
=20
8B-\L
8A-\J
8B-\L
8A-\J
=21||
*M3/4
4F\
4r
8.F\L
16E-\Jk
=22||
*M2/4
4.E-\
8E-\
=23||
*M3/4
4E-\
4r
8.BB-/L
16E-/Jk
=24||
*M2/4
4.E-\
8E-\
=25
2E-\
=26:|!
4E-\
8G\L
8E-\J
=27
2A-\
=28
16E-\LL
16E-\J
8E-\J
8F\L
8E-\J
==
*-
